X:311
T:Gathering Peascods 
M:C | 
K:G 
d4 d2 d2 | B3 c d2 d2 | e2 d2 c2 B2 | A6 B2 | 
A2 G2 G2 F2 |1 G6 z2 :|2 G6 || 
G2 | F2 D2 F2 G2 | A4 B2 A2 | GA B2 A2 G2 | F6 F2 | 
E2 D2 E3 D | D6 :| d2 | B2 G2 G2 AB | c6 d2 | B2 G2 G2 AB | 
c6 d2 | B2 G2 G2 AB | c3 d e2 dc | B2 cB A3 G | G6 :| 

